!!!OTL: Richmudis von Adocht Der eine gestaendige Liebe woll han,
!!!ARE: Europa, Mitteleuropa, Deutschland / France, Lothringen, Kr. Forbach,
!!    Sengbusch
!!!YOR: 5, S. 241
!!    ????
!!!SCT: Q1112D
!!!YEM: Copyright 1995, estate of Helmut Schaffrath.
**kern
*ICvox
*Ivox
*M6/8
*k[f#]
*G:
{8d
=1
8g
8g
8g
8a
8a
8dd
=2
8cc
8cc
8b
4a}
{16d
16d
=3
8g
8g
8a
8dd
8cc
8a
=4
[4.b
4b]}
{8d
=5
8g
8g
8g
4a
8dd
=6
8.cc
16cc
8b
4a}
{16b
16a
=7
8g
8g
8g
4a
8dd
=8
8.cc
16cc
8b
4a}
{8d
=9
8g
16g
16g
16dd
16cc
8b
8b
8a
=10
[4.g
4g]}
==
!!!AGN: ???
!! Melodievergleich zu Q0112A, anderes Lied.
!!!ONB: ESAC (Essen Associative Code) Database: BALLADE
!!!AMT: compound duple
!!!AIN: vox
!!!EED: Helmut Schaffrath
!!!EEV: 1.0
*-
